X:1
T:Après avoir las tout mon temps
T:Pierre Certon
T:Source: Livre premier contenant 29 chansons nouvelles à parties---Paris---P.Attaignant---1535. Editor : André Vierendeels (11/12/17). Notes : Original clefs : C1, C3, C3, F3 Original note values have been halved Editorial accidentals above the staff 
T:Après avoir las tout mon temps
T:©
T:©
T:©
C:Pierre Certon
Z:©
%%score [ 1 [ 2 3 ] 4 ]
L:1/8
Q:1/4=102
M:2/2
K:C
V:1 treble nm="Soprano" snm="S"
V:2 treble-8 nm="Tenor 1" snm="T 1"
V:3 treble-8 nm="Tenor 2" snm="T 2"
V:4 bass nm="Bass" snm="B"
V:1
 A8 | A4 A4 | G4 z2 G2 | G2 G2 A2 A2 | G2 c2 c2 c2 | BA A4 G2 | A4 z4 | z2 c4 B2 | A3 G E2 G2 | %9
w: A-|pres a-|voir, las,|tout mon temps pas-|sé, las, tout mon|remps _ _ pas-|sé|en doeul|et _ _ pei-|
 F4 E2 E2 | G3 G G2 E2 | F4 EFGA | Bcdc BA c2- | c2 BA G2 G2 | A2 B2 c3 B | A2 G2 A2 c2 | %16
w: ne, en tra-|veil et tri- *|stes- * * * *||* * * se, ser-|* * vant le|mieulx, ser- * *|
 c2 c2 B2 A2 | GFEF G2 A2- | A2 GF EFGA | B2 GA Bc d2- | d2 c4 B2 | c4 z4 | A8 | A4 A4 | G4 z2 G2 | %25
w: vant le mieulx _|que _ _ _ _ ie|_ _ _ peu _ _ _|_ ma _ _ _ _|_ mais- tres-|se,|es-|se rai-|son, que|
 G2 G2 A2 A2 | G2 c2 c2 c2 | B2 A4 G2 | A4 z4 | A8 | A4 A4 | G4 z2 G2 | G2 G2 A2 A2 | G2 c2 c2 c2 | %34
w: ien soye de- chas-|sé, que ien soye|de- chas- *|sé,|es-|se rai-|son que|ien soye de- chas-|sé, que j'en soye|
 B2 A4 G2 | A8 |] %36
w: de- chas- *|sé.|
V:2
 e8 | f4 c2 d2 | e4 z2 e2 | e2 e2 c2 A2 | e4 c2 g2 | g2 f2 e2 e2 |"^#" c2 e2 e2 d2 | e3 f g4 | %8
w: A-|pres a- *|voir, las,|tout mon temps pa-|sé, las, tout|mon temps _ pas-|sé, en doeul et|pei- * *|
 c2 A2 A2 G2 | d4 G4- | G4 z2 B2 | d2 d2 e4 | d6 e2- | e2 d2 e2 e2 | f2 e2 A2 e2 | c2 e2 e4 | %16
w: ne, en doeul et|pei- ne,|_ en|tra- veil et|tri- stes-|* * se, et|tri- stes- se, ser-|vant le mieulx,|
 z2 A2 f2 f2 | e6 c2 | d4 G2 c2 | B2 d3 cAB | cdef g4 | e4 z4 | e8 | f4 c2 d2 | e4 z2 e2 | %25
w: ser- vant le|mieulx que|ie peu ma|mais- tres- * * *||se,|es-|se rai- *|son,, que|
 e2 e2 c2 A2 | e4 c2 g2 | g2 e2 e2 e2 | c4 z4 | e8 | f4 c2 d2 | e4 z2 e2 | e2 e2 c2 A2 | e4 c2 g2 | %34
w: ien soye de- chas-|* sé, que|ien soye de- chas-|sé,|es-|se rai- *|son, que|ien soye de- chas-|* sé, que|
 g2 e2 e2 e2 | c8 |] %36
w: ien soye de- chas-|sé.|
V:3
 c8 | d4 A4 | B2 B2 B2 G2 | c2 c2 ABcB/A/ | B2 A2 e2 e2 | d2 c2 B4 | A4 z2 G2 | c3 d e4 | %8
w: A-|pres a-|voir, las, tout mon|temps pas- * * * * *|* sé, tout mon|temps _ pas-|sé, en|doeul et pei-|
 A2 c2 c2 B2 | AGAB c4 | G2 E2 G2 G2 | A2 B2 c4 | B6 AG | A4 B4 | z4 z2 G2 | A2 B2 cBcd | %16
w: ne, en doeul et|pei- * * * ne,-|ne, en tra- veil|et tri- stes-||* se,|ser-|vant le mieulx _ , _|
 e2 e2 d2 d2 | B2 c2 G2 c2- | c2 B2 c2 G2- | GABc de f2- | fedc d4 | c4 z4 | c8 | d4 A4 | %24
w: _ ser- vant le|mieulx que ie peu|_ ma mais- tres-|||se,|es-|se rai-|
 B2 B2 B2 G2 | c2 c2 ABcB/A/ | B2 A2 e2 e2 | d2 c2 B4 | A4 z4 | c8 | d4 A4 | B2 B2 B2 G2 | %32
w: son, que ien soye|de- chas- * * * * *|* sé, que ien|soye de- chas-|sé,|es-|se rai-|son, que ien soye|
 c2 c2 ABcB/A/ | B2 A2 e2 e2 | d2 c2 B4 | A8 |] %36
w: de- chas- * * * * *|* sé, que ien|soye de- chas-|sé.|
V:4
 A,8 | D,4 F,4 | E,4 z2 E,2 | E,2 C,2 F,2 F,2 | E,2 A,,B,, C,D,E,F, | G,2 A,2 E,4 | z2 C2 C2 B,2 | %7
w: A-|pres a-|voir, las,|tout mon temps pas-||* * sé,|en doeul et|
 A,3 G, E,2 G,2 | F,3 E, C,D,E,C, | D,4 C,2 C,2 | E,3 E, E,2 E,2 | D,4 C,2 E,2 | G,3 G, G,2 E,2 | %13
w: pei- * ne, en|doeul et pei- * * *|* ne, en|ta- veil et tri-|stes- se, en|tra- veil et tri-|
 F,4 E,4 | z4 z2 E,2 | F,2 E,2 A,,3 A,, | A,,2 A,,2 D,2 D,2 | E,2 C,2 E,2 F,2 | D,4 C,D,E,F, | %19
w: stes- se,|ser-|vant le mieulx, ser-|vant le mieulx que|ie peu ma mais-|tres- * * * *|
 G,6 F,2 | A,4 G,4 | C,4 z4 | A,8 | D,4 F,4 | E,4 z2 E,2 | E,2 C,2 F,2 F,2 | E,2 A,,B,, C,D,E,F, | %27
w: ||se,|es-|se rai-|son, que|ien soye de- chas-||
 G,2 A,2 E,4 | A,,4 z4 | A,8 |"^#" D,4 F,4 | E,4 z2 E,2 | E,2 C,2 F,2 F,2 | E,2 A,,B,, C,D,E,F, | %34
w: |sé,|es-|se rai-|son, que|ien soye de- chas-||
 G,2 A,2 E,4 | A,,8 |] %36
w: |sé.|

